dist/assets/images/header/headerLogo.svg

<svg width="487" height="99" viewBox="0 0 487 99" fill="none" xmlns="http://www.w3.org/2000/svg">
<path d="M7.39585 52.8438H0V7.52222H7.06859L40.0554 43.2615V7.52222H47.4512V52.8438H40.3826L7.39585 17.1045V52.8438Z" fill="#484848"/>
<path d="M83.395 54.3977C80.4716 54.3977 77.7663 54.1603 75.2792 53.6855C72.7921 53.2539 70.4141 52.4769 68.1452 51.3547C65.9199 50.2324 64.0218 48.808 62.451 47.0815C60.8802 45.355 59.6367 43.1536 58.7204 40.4775C57.8041 37.8014 57.3459 34.7368 57.3459 31.2837V29.0823C57.3459 24.766 58.0441 21.0539 59.4403 17.9462C60.8802 14.8384 62.8655 12.4428 65.3963 10.7595C67.9706 9.0761 70.7413 7.86753 73.7084 7.13375C76.7191 6.35681 80.0571 5.96834 83.7223 5.96834C86.6457 5.96834 89.351 6.20573 91.8381 6.68053C94.3251 7.11217 96.6814 7.88911 98.9066 9.01136C101.176 10.1336 103.095 11.558 104.666 13.2845C106.237 15.0111 107.481 17.2124 108.397 19.8885C109.313 22.5647 109.771 25.6293 109.771 29.0823V31.2837C109.771 35.6 109.051 39.3121 107.611 42.4198C106.215 45.5276 104.23 47.9232 101.656 49.6066C99.1248 51.2899 96.3541 52.4985 93.3434 53.2323C90.3763 54.0092 87.0602 54.3977 83.395 54.3977ZM76.7191 47.7289C78.6826 48.2037 80.9515 48.4411 83.5259 48.4411C86.1003 48.4411 88.3692 48.2037 90.3327 47.7289C92.3398 47.211 94.2161 46.3477 95.9614 45.1391C97.7067 43.9306 99.0375 42.1609 99.9538 39.83C100.914 37.456 101.394 34.5857 101.394 31.2189V29.1471C101.394 25.7803 100.914 22.9316 99.9538 20.6007C99.0375 18.2267 97.7067 16.4355 95.9614 15.2269C94.2161 14.0183 92.3616 13.1766 90.3981 12.7018C88.4347 12.1839 86.1657 11.9249 83.5914 11.9249C81.017 11.9249 78.7262 12.1839 76.7191 12.7018C74.7556 13.1766 72.9012 14.0183 71.1559 15.2269C69.4105 16.4355 68.0579 18.2267 67.098 20.6007C66.1817 22.9316 65.7235 25.7803 65.7235 29.1471V31.2189C65.7235 34.5857 66.1817 37.456 67.098 39.83C68.0579 42.1609 69.4105 43.9306 71.1559 45.1391C72.9012 46.3477 74.7556 47.211 76.7191 47.7289Z" fill="#484848"/>
<path d="M157.384 7.52222H166.023L144.097 52.8438H135.654L113.729 7.52222H122.761L140.039 44.9449L157.384 7.52222Z" fill="#484848"/>
<path d="M170.751 52.8438H162.177L185.281 7.52222H193.593L216.631 52.8438H207.795L202.101 40.9954H176.445L170.751 52.8438ZM189.273 14.191L179.194 35.1684H199.352L189.273 14.191Z" fill="#484848"/>
<path d="M241.088 52.8438H233.103V34.7799L211.832 7.52222H221.257L237.226 28.8234L253.196 7.52222H262.359L241.088 34.7799V52.8438Z" fill="#484848"/>
<path d="M266.113 52.8438H257.539L280.643 7.52222H288.955L311.994 52.8438H303.158L297.464 40.9954H271.808L266.113 52.8438ZM284.636 14.191L274.556 35.1684H294.715L284.636 14.191Z" fill="#484848"/>
<path d="M70.8077 92.6266L68.3917 98.7049H65.4388L74.0142 77.9178H77.2505L85.6916 98.7049H82.7835L80.3823 92.6266H70.8077ZM75.595 80.0422C75.426 80.593 75.2222 81.2077 74.9836 81.8864C74.7549 82.5552 74.5411 83.1453 74.3423 83.6568L71.6727 90.4284H79.5323L76.8329 83.5682C76.6937 83.224 76.5097 82.7371 76.2811 82.1077C76.0524 81.4782 75.8237 80.7897 75.595 80.0422Z" fill="#484848"/>
<path d="M110.816 96.6838C113.759 96.6838 115.971 95.2429 117.453 92.3611L119.779 93.5118C118.914 95.3019 117.696 96.6641 116.125 97.5984C114.564 98.5328 112.75 99 110.682 99C108.554 99 106.725 98.5623 105.193 97.687C103.662 96.8116 102.484 95.5674 101.659 93.9544C100.844 92.3316 100.436 90.4186 100.436 88.2155C100.436 86.0025 100.844 84.1043 101.659 82.5208C102.474 80.9373 103.647 79.7226 105.179 78.8767C106.71 78.0309 108.539 77.608 110.667 77.608C112.904 77.608 114.773 78.0407 116.274 78.9062C117.776 79.7718 118.879 81.0553 119.585 82.7568L116.886 83.642C116.399 82.4322 115.613 81.5077 114.529 80.8684C113.456 80.2291 112.178 79.9095 110.697 79.9095C108.37 79.9095 106.561 80.652 105.268 82.1372C103.975 83.6125 103.329 85.6386 103.329 88.2155C103.329 89.9072 103.632 91.3923 104.239 92.6709C104.855 93.9397 105.72 94.9281 106.834 95.6363C107.957 96.3346 109.285 96.6838 110.816 96.6838Z" fill="#484848"/>
<path d="M146.022 96.6838C148.965 96.6838 151.177 95.2429 152.658 92.3611L154.985 93.5118C154.12 95.3019 152.902 96.6641 151.331 97.5984C149.77 98.5328 147.956 99 145.888 99C143.76 99 141.93 98.5623 140.399 97.687C138.868 96.8116 137.69 95.5674 136.865 93.9544C136.05 92.3316 135.642 90.4186 135.642 88.2155C135.642 86.0025 136.05 84.1043 136.865 82.5208C137.68 80.9373 138.853 79.7226 140.384 78.8767C141.916 78.0309 143.745 77.608 145.873 77.608C148.11 77.608 149.979 78.0407 151.48 78.9062C152.982 79.7718 154.085 81.0553 154.791 82.7568L152.092 83.642C151.605 82.4322 150.819 81.5077 149.735 80.8684C148.662 80.2291 147.384 79.9095 145.903 79.9095C143.576 79.9095 141.766 80.652 140.474 82.1372C139.181 83.6125 138.535 85.6386 138.535 88.2155C138.535 89.9072 138.838 91.3923 139.445 92.6709C140.061 93.9397 140.926 94.9281 142.04 95.6363C143.163 96.3346 144.491 96.6838 146.022 96.6838Z" fill="#484848"/>
<path d="M188.357 96.4035V98.7049H171.802V77.9178H187.745V80.2193H174.651V86.8877H186.85V89.1597H174.651V96.4035H188.357Z" fill="#484848"/>
<path d="M221.773 92.966C221.773 94.8839 221.012 96.369 219.491 97.4214C217.98 98.4738 215.847 99 213.093 99C207.973 99 205.005 97.2395 204.19 93.7184L206.949 93.1725C207.267 94.4216 207.943 95.3412 208.977 95.9314C210.011 96.5116 211.418 96.8018 213.197 96.8018C215.037 96.8018 216.454 96.492 217.448 95.8723C218.452 95.2429 218.954 94.3233 218.954 93.1135C218.954 92.4349 218.795 91.8841 218.477 91.4612C218.169 91.0382 217.731 90.6891 217.164 90.4137C216.598 90.1383 215.922 89.9072 215.136 89.7203C214.351 89.5334 213.481 89.3318 212.526 89.1154C211.423 88.8695 210.498 88.6286 209.752 88.3925C209.017 88.1565 208.41 87.9106 207.933 87.6548C207.456 87.3893 207.048 87.109 206.71 86.8139C206.213 86.3615 205.83 85.8353 205.562 85.2353C205.303 84.6354 205.174 83.9469 205.174 83.1699C205.174 81.3897 205.86 80.0176 207.232 79.0538C208.614 78.0899 210.588 77.608 213.153 77.608C215.539 77.608 217.363 77.9719 218.626 78.6997C219.889 79.4177 220.774 80.6471 221.281 82.388L218.477 82.8748C218.169 81.7733 217.582 80.9766 216.717 80.4848C215.852 79.9832 214.654 79.7324 213.123 79.7324C211.443 79.7324 210.16 80.0078 209.275 80.5586C208.39 81.1094 207.948 81.9306 207.948 83.0224C207.948 83.6617 208.117 84.1928 208.455 84.6157C208.803 85.0288 209.3 85.378 209.946 85.6632C210.553 85.9484 211.84 86.3074 213.809 86.7402C214.614 86.927 215.41 87.1237 216.195 87.3303C216.981 87.527 217.721 87.7778 218.417 88.0827C218.825 88.2499 219.213 88.4564 219.581 88.7023C219.958 88.9384 220.286 89.2138 220.565 89.5285C220.943 89.9416 221.236 90.4284 221.445 90.9891C221.663 91.5497 221.773 92.2086 221.773 92.966Z" fill="#484848"/>
<path d="M255.279 92.966C255.279 94.8839 254.518 96.369 252.997 97.4214C251.486 98.4738 249.353 99 246.599 99C241.478 99 238.511 97.2395 237.695 93.7184L240.454 93.1725C240.773 94.4216 241.449 95.3412 242.483 95.9314C243.517 96.5116 244.923 96.8018 246.703 96.8018C248.543 96.8018 249.959 96.492 250.954 95.8723C251.958 95.2429 252.46 94.3233 252.46 93.1135C252.46 92.4349 252.301 91.8841 251.983 91.4612C251.674 91.0382 251.237 90.6891 250.67 90.4137C250.104 90.1383 249.427 89.9072 248.642 89.7203C247.857 89.5334 246.987 89.3318 246.032 89.1154C244.928 88.8695 244.004 88.6286 243.258 88.3925C242.522 88.1565 241.916 87.9106 241.439 87.6548C240.961 87.3893 240.554 87.109 240.216 86.8139C239.719 86.3615 239.336 85.8353 239.067 85.2353C238.809 84.6354 238.68 83.9469 238.68 83.1699C238.68 81.3897 239.366 80.0176 240.738 79.0538C242.12 78.0899 244.093 77.608 246.658 77.608C249.045 77.608 250.869 77.9719 252.132 78.6997C253.395 79.4177 254.279 80.6471 254.786 82.388L251.983 82.8748C251.674 81.7733 251.088 80.9766 250.223 80.4848C249.358 79.9832 248.16 79.7324 246.629 79.7324C244.948 79.7324 243.666 80.0078 242.781 80.5586C241.896 81.1094 241.454 81.9306 241.454 83.0224C241.454 83.6617 241.623 84.1928 241.961 84.6157C242.309 85.0288 242.806 85.378 243.452 85.6632C244.059 85.9484 245.346 86.3074 247.315 86.7402C248.12 86.927 248.915 87.1237 249.701 87.3303C250.486 87.527 251.227 87.7778 251.923 88.0827C252.331 88.2499 252.718 88.4564 253.086 88.7023C253.464 88.9384 253.792 89.2138 254.071 89.5285C254.448 89.9416 254.742 90.4284 254.951 90.9891C255.169 91.5497 255.279 92.2086 255.279 92.966Z" fill="#484848"/>
<path d="M292.11 88.2155C292.11 90.4383 291.683 92.3562 290.828 93.9692C289.982 95.5822 288.779 96.8264 287.218 97.7017C285.657 98.5672 283.808 99 281.671 99C279.523 99 277.669 98.5672 276.108 97.7017C274.557 96.8362 273.359 95.5969 272.513 93.9839C271.678 92.3709 271.261 90.4481 271.261 88.2155C271.261 85.9927 271.673 84.0944 272.499 82.5208C273.334 80.9373 274.527 79.7226 276.078 78.8767C277.639 78.0309 279.513 77.608 281.7 77.608C283.848 77.608 285.697 78.026 287.248 78.862C288.809 79.698 290.007 80.9078 290.842 82.4913C291.688 84.0649 292.11 85.973 292.11 88.2155ZM289.202 88.2155C289.202 85.6288 288.546 83.5977 287.233 82.1224C285.931 80.6471 284.087 79.9095 281.7 79.9095C279.294 79.9095 277.435 80.6373 276.123 82.0929C274.81 83.5486 274.154 85.5894 274.154 88.2155C274.154 89.9465 274.452 91.4513 275.049 92.7299C275.645 93.9987 276.505 94.9822 277.629 95.6805C278.752 96.369 280.1 96.7133 281.671 96.7133C284.096 96.7133 285.956 95.9756 287.248 94.5003C288.551 93.0151 289.202 90.9202 289.202 88.2155Z" fill="#484848"/>
<path d="M312.074 90.0744V98.7049H309.226V77.9178H319.114C321.48 77.9178 323.304 78.444 324.587 79.4964C325.879 80.5389 326.526 81.9946 326.526 83.8633C326.526 85.4075 326.068 86.7057 325.154 87.7581C324.249 88.8105 322.996 89.4744 321.395 89.7498L327.361 98.7049H324.08L318.621 90.0744H312.074ZM323.662 83.8928C323.662 82.683 323.245 81.7634 322.409 81.134C321.584 80.4947 320.391 80.175 318.83 80.175H312.074V87.8466H318.949C320.451 87.8466 321.609 87.5024 322.424 86.8139C323.25 86.1156 323.662 85.1419 323.662 83.8928Z" fill="#484848"/>
<path d="M347.593 77.9178V98.7049H344.745V77.9178H347.593Z" fill="#484848"/>
<path d="M382.62 96.4035V98.7049H366.066V77.9178H382.009V80.2193H368.915V86.8877H381.114V89.1597H368.915V96.4035H382.62Z" fill="#484848"/>
<path d="M416.037 92.966C416.037 94.8839 415.276 96.369 413.755 97.4214C412.244 98.4738 410.111 99 407.357 99C402.236 99 399.269 97.2395 398.453 93.7184L401.212 93.1725C401.531 94.4216 402.207 95.3412 403.241 95.9314C404.275 96.5116 405.682 96.8018 407.461 96.8018C409.301 96.8018 410.717 96.492 411.712 95.8723C412.716 95.2429 413.218 94.3233 413.218 93.1135C413.218 92.4349 413.059 91.8841 412.741 91.4612C412.432 91.0382 411.995 90.6891 411.428 90.4137C410.862 90.1383 410.185 89.9072 409.4 89.7203C408.615 89.5334 407.745 89.3318 406.79 89.1154C405.687 88.8695 404.762 88.6286 404.016 88.3925C403.28 88.1565 402.674 87.9106 402.197 87.6548C401.719 87.3893 401.312 87.109 400.974 86.8139C400.477 86.3615 400.094 85.8353 399.825 85.2353C399.567 84.6354 399.438 83.9469 399.438 83.1699C399.438 81.3897 400.124 80.0176 401.496 79.0538C402.878 78.0899 404.851 77.608 407.417 77.608C409.803 77.608 411.627 77.9719 412.89 78.6997C414.153 79.4177 415.037 80.6471 415.544 82.388L412.741 82.8748C412.432 81.7733 411.846 80.9766 410.981 80.4848C410.116 79.9832 408.918 79.7324 407.387 79.7324C405.706 79.7324 404.424 80.0078 403.539 80.5586C402.654 81.1094 402.212 81.9306 402.212 83.0224C402.212 83.6617 402.381 84.1928 402.719 84.6157C403.067 85.0288 403.564 85.378 404.21 85.6632C404.817 85.9484 406.104 86.3074 408.073 86.7402C408.878 86.927 409.673 87.1237 410.459 87.3303C411.244 87.527 411.985 87.7778 412.681 88.0827C413.089 88.2499 413.476 88.4564 413.844 88.7023C414.222 88.9384 414.55 89.2138 414.829 89.5285C415.206 89.9416 415.5 90.4284 415.709 90.9891C415.927 91.5497 416.037 92.2086 416.037 92.966Z" fill="#484848"/>
<path d="M416.094 52.8438H408.109V34.7799L386.838 7.52222H396.263L412.233 28.8234L428.202 7.52222H437.365L416.094 34.7799V52.8438Z" fill="#484848"/>
<path d="M441.12 52.8438H432.546L455.649 7.52222H463.962L487 52.8438H478.164L472.47 40.9954H446.814L441.12 52.8438ZM459.642 14.191L449.563 35.1684H469.721L459.642 14.191Z" fill="#484848"/>
<path fill-rule="evenodd" clip-rule="evenodd" d="M329.918 19.0992C333.522 20.7974 336.484 22.1336 336.5 22.0686C336.516 22.0037 336.983 19.1242 337.538 15.67L338.548 9.38936L323.365 16.0117L329.918 19.0992ZM350.26 10.1211C353.212 12.0454 355.676 13.6462 355.736 13.6784C355.795 13.7107 356.795 10.6463 357.959 6.86848L360.074 0L344.891 6.62237L350.26 10.1211ZM341.24 15.5426L340.244 21.7084L352.942 16.1701L347.668 12.7388C344.768 10.8516 342.359 9.32312 342.315 9.34218C342.271 9.36123 341.788 12.1515 341.24 15.5426ZM321.19 21.4947C320.983 22.6423 320.52 25.1951 320.161 27.1673L319.508 30.7533L333.209 24.7772L327.452 22.0646C324.286 20.5727 321.666 19.3646 321.631 19.3801C321.595 19.3955 321.397 20.3472 321.19 21.4947ZM361.835 7.06724L359.977 13.1014L373.678 7.12525L370.561 5.18379C368.847 4.11603 366.629 2.73256 365.633 2.10965C364.637 1.48675 363.793 0.989618 363.758 1.00503C363.722 1.02049 362.857 3.74848 361.835 7.06724ZM321.673 34.437C322.04 34.6852 358.078 53.098 358.094 53.0455C358.101 53.0211 353.495 47.2147 347.857 40.1427L337.607 27.2844L329.515 30.7766C321.572 34.205 321.428 34.2718 321.673 34.437ZM341.012 25.908C341.076 25.9797 345.514 31.5529 350.874 38.2931C356.233 45.0331 360.642 50.5374 360.672 50.5247C360.701 50.512 359.566 43.5796 358.15 35.1193C356.734 26.659 355.568 19.6589 355.558 19.5634C355.544 19.4257 354.031 20.0478 348.217 22.5838C342.404 25.1197 340.919 25.8046 341.012 25.908ZM358.915 18.1236C358.962 18.6055 364.253 50.3243 364.29 50.3414C364.337 50.3637 374.783 12.0614 374.919 11.3656L375.011 10.8971L366.953 14.4115C360.092 17.4044 358.899 17.9553 358.915 18.1236Z" fill="#FE4947"/>
</svg>

<svg width="487" height="99" fill="none" xmlns="http://www.w3.org/2000/svg"><path d="M7.396 52.844H0V7.522h7.069l32.986 35.74V7.521h7.396v45.322h-7.068L7.396 17.104v35.74zm75.999 1.554c-2.923 0-5.629-.238-8.116-.713a26.061 26.061 0 01-7.134-2.33c-2.225-1.123-4.123-2.547-5.694-4.273-1.57-1.727-2.814-3.928-3.73-6.605-.917-2.676-1.375-5.74-1.375-9.193v-2.202c0-4.316.698-8.028 2.094-11.136 1.44-3.108 3.425-5.503 5.956-7.187a26.872 26.872 0 018.312-3.625c3.011-.777 6.35-1.166 10.014-1.166 2.924 0 5.629.238 8.116.713a25.164 25.164 0 017.069 2.33c2.269 1.123 4.188 2.547 5.759 4.274 1.571 1.726 2.815 3.927 3.731 6.604.916 2.676 1.374 5.74 1.374 9.193v2.202c0 4.316-.72 8.028-2.16 11.136-1.396 3.108-3.381 5.503-5.955 7.187a26.013 26.013 0 01-8.313 3.625c-2.967.777-6.283 1.166-9.948 1.166zm-6.676-6.67c1.964.476 4.233.713 6.807.713 2.574 0 4.843-.237 6.807-.712a17.503 17.503 0 005.628-2.59c1.746-1.208 3.076-2.978 3.993-5.309.96-2.374 1.44-5.244 1.44-8.611v-2.072c0-3.367-.48-6.215-1.44-8.546-.916-2.374-2.247-4.165-3.993-5.374-1.745-1.209-3.6-2.05-5.563-2.525-1.963-.518-4.232-.777-6.807-.777-2.574 0-4.865.259-6.872.777-1.963.475-3.818 1.316-5.563 2.525-1.746 1.209-3.098 3-4.058 5.374-.916 2.33-1.374 5.18-1.374 8.546v2.072c0 3.367.458 6.237 1.374 8.611.96 2.33 2.313 4.1 4.058 5.31 1.745 1.208 3.6 2.071 5.563 2.589zm80.665-40.206h8.639l-21.926 45.322h-8.443L113.729 7.522h9.032l17.278 37.423 17.345-37.423zm13.367 45.322h-8.574l23.104-45.322h8.312l23.038 45.322h-8.836l-5.694-11.849h-25.656l-5.694 11.849zm18.522-38.653l-10.079 20.977h20.158l-10.079-20.977zm51.815 38.653h-7.985V34.78L211.832 7.522h9.425l15.969 21.301 15.97-21.3h9.163L241.088 34.78v18.064zm25.025 0h-8.574l23.104-45.322h8.312l23.039 45.322h-8.836l-5.694-11.849h-25.656l-5.695 11.849zm18.523-38.653l-10.08 20.977h20.159l-10.079-20.977zM70.808 92.627l-2.416 6.078h-2.953l8.575-20.787h3.237l8.44 20.787h-2.907l-2.402-6.078h-9.574zm4.787-12.585a49.083 49.083 0 01-.611 1.844 46.24 46.24 0 01-.642 1.77l-2.67 6.772h7.86l-2.7-6.86a46.357 46.357 0 01-1.237-3.526zm35.221 16.642c2.943 0 5.155-1.441 6.637-4.323l2.326 1.15c-.865 1.79-2.083 3.153-3.654 4.087-1.561.935-3.375 1.402-5.443 1.402-2.128 0-3.957-.438-5.489-1.313-1.531-.875-2.709-2.12-3.534-3.733-.815-1.622-1.223-3.535-1.223-5.738 0-2.213.408-4.112 1.223-5.695.815-1.584 1.988-2.798 3.52-3.644 1.531-.846 3.36-1.269 5.488-1.269 2.237 0 4.106.433 5.607 1.298 1.502.866 2.605 2.15 3.311 3.85l-2.699.886c-.487-1.21-1.273-2.134-2.357-2.774-1.073-.639-2.351-.959-3.832-.959-2.327 0-4.136.743-5.429 2.228-1.293 1.475-1.939 3.502-1.939 6.079 0 1.691.303 3.176.91 4.455.616 1.269 1.481 2.257 2.595 2.965 1.123.699 2.451 1.048 3.982 1.048zm35.206 0c2.943 0 5.155-1.441 6.636-4.323l2.327 1.15c-.865 1.79-2.083 3.153-3.654 4.087-1.561.935-3.375 1.402-5.443 1.402-2.128 0-3.958-.438-5.489-1.313-1.531-.875-2.709-2.12-3.534-3.733-.815-1.622-1.223-3.535-1.223-5.738 0-2.213.408-4.112 1.223-5.695.815-1.584 1.988-2.798 3.519-3.644 1.532-.846 3.361-1.269 5.489-1.269 2.237 0 4.106.433 5.607 1.298 1.502.866 2.605 2.15 3.311 3.85l-2.699.886c-.487-1.21-1.273-2.134-2.357-2.774-1.073-.639-2.351-.959-3.832-.959-2.327 0-4.137.743-5.429 2.228-1.293 1.475-1.939 3.502-1.939 6.079 0 1.691.303 3.176.91 4.455.616 1.269 1.481 2.257 2.595 2.965 1.123.699 2.451 1.048 3.982 1.048zm42.335-.281v2.302h-16.555V77.918h15.943v2.301h-13.094v6.669h12.199v2.272h-12.199v7.243h13.706zm33.416-3.437c0 1.918-.761 3.403-2.282 4.455-1.511 1.053-3.644 1.579-6.398 1.579-5.12 0-8.088-1.76-8.903-5.282l2.759-.546c.318 1.25.994 2.17 2.028 2.76 1.034.58 2.441.87 4.22.87 1.84 0 3.257-.31 4.251-.93 1.004-.63 1.506-1.549 1.506-2.758 0-.68-.159-1.23-.477-1.653-.308-.423-.746-.772-1.313-1.047-.566-.276-1.242-.507-2.028-.694-.785-.187-1.655-.388-2.61-.605a33.743 33.743 0 01-2.774-.722c-.735-.237-1.342-.482-1.819-.738a7.121 7.121 0 01-1.223-.841 4.72 4.72 0 01-1.148-1.579c-.259-.6-.388-1.288-.388-2.065 0-1.78.686-3.152 2.058-4.116 1.382-.964 3.356-1.446 5.921-1.446 2.386 0 4.21.364 5.473 1.092 1.263.718 2.148 1.947 2.655 3.688l-2.804.487c-.308-1.102-.895-1.898-1.76-2.39-.865-.502-2.063-.753-3.594-.753-1.68 0-2.963.276-3.848.827-.885.55-1.327 1.372-1.327 2.463 0 .64.169 1.17.507 1.594.348.413.845.762 1.491 1.047.607.285 1.894.644 3.863 1.077a83.83 83.83 0 012.386.59c.786.197 1.526.448 2.222.753a6.5 6.5 0 011.164.62c.377.235.705.51.984.825.378.414.671.9.88 1.461.218.56.328 1.22.328 1.977zm33.506 0c0 1.918-.761 3.403-2.282 4.455-1.511 1.053-3.644 1.579-6.398 1.579-5.121 0-8.088-1.76-8.904-5.282l2.759-.546c.319 1.25.995 2.17 2.029 2.76 1.034.58 2.44.87 4.22.87 1.84 0 3.256-.31 4.251-.93 1.004-.63 1.506-1.549 1.506-2.758 0-.68-.159-1.23-.477-1.653-.309-.423-.746-.772-1.313-1.047-.566-.276-1.243-.507-2.028-.694-.785-.187-1.655-.388-2.61-.605a33.636 33.636 0 01-2.774-.722c-.736-.237-1.342-.482-1.819-.738a7.082 7.082 0 01-1.223-.841 4.736 4.736 0 01-1.149-1.579c-.258-.6-.387-1.288-.387-2.065 0-1.78.686-3.152 2.058-4.116 1.382-.964 3.355-1.446 5.92-1.446 2.387 0 4.211.364 5.474 1.092 1.263.718 2.147 1.947 2.654 3.688l-2.803.487c-.309-1.102-.895-1.898-1.76-2.39-.865-.502-2.063-.753-3.594-.753-1.681 0-2.963.276-3.848.827-.885.55-1.327 1.372-1.327 2.463 0 .64.169 1.17.507 1.594.348.413.845.762 1.491 1.047.607.285 1.894.644 3.863 1.077.805.187 1.6.384 2.386.59.785.197 1.526.448 2.222.753.408.167.795.373 1.163.62.378.235.706.51.985.825.377.414.671.9.88 1.461.218.56.328 1.22.328 1.977zm36.831-4.75c0 2.222-.427 4.14-1.282 5.753-.846 1.613-2.049 2.857-3.61 3.733-1.561.865-3.41 1.298-5.547 1.298-2.148 0-4.002-.433-5.563-1.298-1.551-.866-2.749-2.105-3.595-3.718-.835-1.613-1.252-3.536-1.252-5.768 0-2.223.412-4.122 1.238-5.695.835-1.584 2.028-2.798 3.579-3.644 1.561-.846 3.435-1.269 5.622-1.269 2.148 0 3.997.418 5.548 1.254 1.561.836 2.759 2.046 3.594 3.63.846 1.573 1.268 3.481 1.268 5.724zm-2.908 0c0-2.587-.656-4.618-1.969-6.094-1.302-1.475-3.146-2.213-5.533-2.213-2.406 0-4.265.728-5.577 2.184-1.313 1.456-1.969 3.496-1.969 6.123 0 1.73.298 3.235.895 4.514.596 1.269 1.456 2.252 2.58 2.95 1.123.689 2.471 1.033 4.042 1.033 2.425 0 4.285-.737 5.577-2.213 1.303-1.485 1.954-3.58 1.954-6.284zm22.872 1.858v8.63h-2.848V77.919h9.888c2.366 0 4.19.526 5.473 1.578 1.292 1.043 1.939 2.499 1.939 4.367 0 1.544-.458 2.843-1.372 3.895-.905 1.053-2.158 1.716-3.759 1.992l5.966 8.955h-3.281l-5.459-8.63h-6.547zm11.588-6.181c0-1.21-.417-2.13-1.253-2.759-.825-.64-2.018-.959-3.579-.959h-6.756v7.672h6.875c1.502 0 2.66-.345 3.475-1.033.826-.698 1.238-1.672 1.238-2.921zm23.931-5.975v20.787h-2.848V77.918h2.848zm35.027 18.485v2.302h-16.554V77.918h15.943v2.301h-13.094v6.669h12.199v2.272h-12.199v7.243h13.705zm33.417-3.437c0 1.918-.761 3.403-2.282 4.455-1.511 1.053-3.644 1.579-6.398 1.579-5.121 0-8.088-1.76-8.904-5.282l2.759-.546c.319 1.25.995 2.17 2.029 2.76 1.034.58 2.441.87 4.22.87 1.84 0 3.256-.31 4.251-.93 1.004-.63 1.506-1.549 1.506-2.758 0-.68-.159-1.23-.477-1.653-.309-.423-.746-.772-1.313-1.047-.566-.276-1.243-.507-2.028-.694-.785-.187-1.655-.388-2.61-.605a33.743 33.743 0 01-2.774-.722c-.736-.237-1.342-.482-1.819-.738a7.082 7.082 0 01-1.223-.841 4.736 4.736 0 01-1.149-1.579c-.258-.6-.387-1.288-.387-2.065 0-1.78.686-3.152 2.058-4.116 1.382-.964 3.355-1.446 5.921-1.446 2.386 0 4.21.364 5.473 1.092 1.263.718 2.147 1.947 2.654 3.688l-2.803.487c-.309-1.102-.895-1.898-1.76-2.39-.865-.502-2.063-.753-3.594-.753-1.681 0-2.963.276-3.848.827-.885.55-1.327 1.372-1.327 2.463 0 .64.169 1.17.507 1.594.348.413.845.762 1.491 1.047.607.285 1.894.644 3.863 1.077.805.187 1.6.384 2.386.59.785.197 1.526.448 2.222.753.408.167.795.373 1.163.62.378.235.706.51.985.825.377.414.671.9.88 1.461.218.56.328 1.22.328 1.977zm.057-40.122h-7.985V34.78L386.838 7.522h9.425l15.97 21.301 15.969-21.3h9.163L416.094 34.78v18.064zm25.026 0h-8.574l23.103-45.322h8.313L487 52.844h-8.836l-5.694-11.849h-25.656l-5.694 11.849zm18.522-38.653l-10.079 20.977h20.158l-10.079-20.977z" fill="#484848"/><path fill-rule="evenodd" clip-rule="evenodd" d="M329.918 19.1c3.604 1.697 6.566 3.034 6.582 2.969.016-.065.483-2.945 1.038-6.399l1.01-6.28-15.183 6.622 6.553 3.087zm20.342-8.979a1064.88 1064.88 0 005.476 3.557c.059.033 1.059-3.032 2.223-6.81L360.074 0l-15.183 6.622 5.369 3.5zm-9.02 5.422l-.996 6.165 12.698-5.538-5.274-3.431c-2.9-1.887-5.309-3.416-5.353-3.397-.044.02-.527 2.81-1.075 6.2zm-20.05 5.952c-.207 1.147-.67 3.7-1.029 5.672l-.653 3.586 13.701-5.976-5.757-2.712c-3.166-1.492-5.786-2.7-5.821-2.685-.036.015-.234.967-.441 2.115zm40.645-14.428l-1.858 6.034 13.701-5.976-3.117-1.941a4299.149 4299.149 0 01-4.928-3.074c-.996-.623-1.84-1.12-1.875-1.105-.036.015-.901 2.743-1.923 6.062zm-40.162 27.37c.367.248 36.405 18.661 36.421 18.608.007-.024-4.599-5.83-10.237-12.902l-10.25-12.859-8.092 3.493c-7.943 3.428-8.087 3.495-7.842 3.66zm19.339-8.529c.064.072 4.502 5.645 9.862 12.385 5.359 6.74 9.768 12.244 9.798 12.232.029-.013-1.106-6.945-2.522-15.406-1.416-8.46-2.582-15.46-2.592-15.556-.014-.137-1.527.485-7.341 3.02-5.813 2.537-7.298 3.222-7.205 3.325zm17.903-7.784c.047.482 5.338 32.2 5.375 32.217.047.023 10.493-38.28 10.629-38.975l.092-.469-8.058 3.514c-6.861 2.993-8.054 3.544-8.038 3.713z" fill="#FE4947"/></svg>
